source/images/icons/icon-utility/plus-circle.svg

<?xml version="1.0" encoding="UTF-8"?>
<svg width="24px" height="24px" viewBox="0 0 24 24" version="1.1" xmlns="http://www.w3.org/2000/svg" xmlns:xlink="http://www.w3.org/1999/xlink">
    <!-- Generator: Sketch 55.2 (78181) - https://sketchapp.com -->
    <title>Icons/24px/Plus-Circle</title>
    <desc>Created with Sketch.</desc>
    <g id="Icons/24px/Plus-Circle" stroke="none" stroke-width="1" fill="none" fill-rule="evenodd">
        <path d="M11,11 L11,8 C11,7.44771525 11.4477153,7 12,7 C12.5522847,7 13,7.44771525 13,8 L13,11 L16,11 C16.5522847,11 17,11.4477153 17,12 C17,12.5522847 16.5522847,13 16,13 L13,13 L13,16 C13,16.5522847 12.5522847,17 12,17 C11.4477153,17 11,16.5522847 11,16 L11,13 L8,13 C7.44771525,13 7,12.5522847 7,12 C7,11.4477153 7.44771525,11 8,11 L11,11 Z M21.5415799,17.4768075 C21.2662387,17.9555617 20.6549235,18.1204606 20.1761693,17.8451194 C19.697415,17.5697782 19.5325161,16.958463 19.8078573,16.4797087 C20.5851767,15.1281312 21,13.5954728 21,12 C21,7.02943725 16.9705627,3 12,3 C7.02943725,3 3,7.02943725 3,12 C3,16.9705627 7.02943725,21 12,21 C13.5972719,21 15.131579,20.5842381 16.4842343,19.8052528 C16.9628285,19.5296336 17.5742394,19.6941773 17.8498587,20.1727716 C18.1254779,20.6513658 17.9609342,21.2627767 17.48234,21.538396 C15.8280851,22.4910704 13.9499566,23 12,23 C5.92486775,23 1,18.0751322 1,12 C1,5.92486775 5.92486775,1 12,1 C18.0751322,1 23,5.92486775 23,12 C23,13.9477573 22.4922199,15.8238659 21.5415799,17.4768075 Z" id="Icon" fill="#ADB5BD"></path>
    </g>
</svg>

<svg width="24" height="24">
    <title>
        Icons/24px/Plus-Circle
    </title>
    <path d="M11 11V8a1 1 0 0 1 2 0v3h3a1 1 0 0 1 0 2h-3v3a1 1 0 0 1-2 0v-3H8a1 1 0 0 1 0-2h3zm10.542 6.477a1 1 0 0 1-1.734-.997A8.953 8.953 0 0 0 21 12a9 9 0 1 0-9 9 8.953 8.953 0 0 0 4.484-1.195 1 1 0 0 1 .998 1.733A10.953 10.953 0 0 1 12 23C5.925 23 1 18.075 1 12S5.925 1 12 1s11 4.925 11 11c0 1.948-.508 3.824-1.458 5.477z" fill="#ADB5BD" fill-rule="evenodd"/>
</svg>
